X: 2
T: Miners of Wicklow
M: 6/8
L: 1/8
K: D
|: G |\
F2 A AB=c | BAB G2 A | BGE EFG | AFD D2 G |
FAA AB=c | BAB G2 A | Bcd ecA | d3 d2 :|
|: g |\
fdf fdf | ece ece | fdf fdf | aba a2 g |
fdf fdf | ece ecA | Bcd ecA | d3 d2 :|
